dist/svg/user-change.svg

<svg width="16" height="16" viewBox="0 0 16 16" fill="rgb(34, 34, 34)" xmlns="http://www.w3.org/2000/svg"><title>user-change</title><path d="M6.99998 10V14H1.89998C-1.50002 14 0.599978 11 1.49998 10C2.39998 9.1 3.49998 8.5 4.69998 8.2V7.7C3.19998 7 2.59998 5.2 3.29998 3.7C3.99998 2.2 5.79998 1.6 7.29998 2.3C8.79998 3 9.39998 4.8 8.69998 6.3C8.39998 6.9 7.89998 7.4 7.29998 7.7V8.2C8.49998 8.5 9.59998 9.2 10.5 10H6.99998ZM11.3 5.7C12.8 5 13.4 3.2 12.7 1.7C12 0.2 10.2 -0.4 8.69998 0.3C8.19998 0.5 7.79998 0.9 7.49998 1.3C9.49998 2.1 10.5 4.5 9.69998 6.5C9.49998 6.9 9.29998 7.3 8.89998 7.7C9.69998 8.1 10.4 8.5 11 9.1V5.7H11.3ZM12 13V16L16 12L12 8V11H7.99998V13H12Z" fill="rgb(34, 34, 34)" fill-opacity="1.00"/></svg>

<!-- Generated by Trend Micro Style Portal -->
<svg version="1.1" xmlns="http://www.w3.org/2000/svg" width="16" height="16" viewBox="0 0 16 16">
  <title>user-change</title>
  <path fill="rgb(34,34,34)" d="M7 10v4h-5.1c-3.4 0-1.3-3-0.4-4 0.9-0.9 2-1.5 3.2-1.8v-0.5c-1.5-0.7-2.1-2.5-1.4-4s2.5-2.1 4-1.4 2.1 2.5 1.4 4c-0.3 0.6-0.8 1.1-1.4 1.4v0.5c1.2 0.3 2.3 1 3.2 1.8h-3.5zM11.3 5.7c1.5-0.7 2.1-2.5 1.4-4s-2.5-2.1-4-1.4c-0.5 0.2-0.9 0.6-1.2 1 2 0.8 3 3.2 2.2 5.2-0.2 0.4-0.4 0.8-0.8 1.2 0.8 0.4 1.5 0.8 2.1 1.4v-3.4h0.3zM12 13v3l4-4-4-4v3h-4v2h4z"></path>
</svg>
